X:1
T:James Gibb editions
T:Lead, kindly Light - Barnby
%%score [ ( 1 2 ) ( 3 4 ) ]
L:1/8
Q:1/4=100
M:4/4
K:C
V:1 treble nm="Midi_74"
V:2 treble 
V:3 bass nm="Midi_74"
V:4 bass 
V:1
"^10 4. 10 4. 10 10""^John Henry Newman\n(1801-90)""^Lead, kindly Light""^Joseph Barnby\n(1838-96)" E4 E2 E2 | %1
 F4 F4 | F2 A2 G2 F2 | E4 || c4 | B4 ^F4 | G6 ||!p! G2 | G4 G4 | A6 A2 | A2 c2 B2 A2 | G4 || e4 | %13
 d4 A4 | B8 ||[M:4/4]!mf! c4 c2 c2 | B4 B4 | _B3 B B2 B2 | A6 || A2 | (A4 B2) A2 | G2 G2 G2 C2 | %22
 E4 D4 | C8 || F4 E4 |] %25
V:2
 C4 C2 C2 | D4 D4 | D2 F2 E2 D2 | C4 || E4 | E4 ^D4 | E6 || E2 | E4 E4 | ^F6 F2 | ^F2 ^D2 E2 F2 | %11
 G4 || G4 | G4- ^F4 | G8 ||[M:4/4] G4 G2 G2 | G4 G4 | F3 F F2 F2 | F6 || E2 | D6 D2 | %21
 D2 B,2 C2 C2 | C4 B,4 | C8 || C4 C4 |] %25
V:3
 G,4 G,2 G,2 | A,4 A,4 | G,2 B,2 C2 D2 | G,4 ||"^cresc." A,4 | ^F,4 B,4 | B,6 ||!p! B,2 | B,4 B,4 | %9
 C6 C2 | B,2"^1" A,2 G,2 ^F,2 | B,4"^cresc." || C4 | A,4 D4 | D8 ||[M:4/4]!mf! E4"^-" E2"^-" E2 | %16
 D4"^-""^1. Lead, kindly Light, amid th’encircling gloom,\nlead Thou me on!\nThe night is dark, and I am far from home;\nlead Thou me on!\nKeep Thou my feet; I do not ask to see\nThe distant scene; one step enough for me.\n\n2. I was not ever thus, nor prayed that Thou\nshouldst lead me on;\nI loved to choose and see my path; but now\nlead Thou me on!\nI loved the garish day, and, spite of fears,\nPride ruled my will. Remember not past years!\n\n3. So long Thy power hath blest me, sure it still\nwill lead me on.\nO’er moor and fen, o’er crag and torrent, till\nthe night is gone,\nAnd with the morn those angel faces smile,\nwhich I have loved long since, and lost awhile!" D4 | %17
"^-" D3 D D2 D2 | C6 ||"^dim." C2 | C6"^-" C2 | B,2 G,2 G,2 =F,2 | G,4 F,4 | E,8 || A,4 G,4 |] %25
V:4
 C,4 C,2 C,2 | C,4 C,4 | B,,2 G,,2 A,,2 B,,2 | C,4 || A,,4 | B,,4 B,,4 | E,6 || E,2 | E,4 E,4 | %9
 E,6 E,2 | ^D,2 B,,2 ^C,2 D,2 | E,4 || C,4 | D,4 D,4 | G,8 ||[M:4/4] C4 C2 C2 | G,4 G,4 | %17
 _B,3 B, B,2 B,2 | F,6 || F,2 | ^F,6 D,2 | G,2 =F,2 E,2 A,,2 | G,,4 G,,4 | C,8 || F,,4 C,4 |] %25

